public/images/mulberry-symbols/plastic_pocket.svg

<svg xmlns="http://www.w3.org/2000/svg" width="850.394" height="850.394" viewBox="0 0 850.394 850.394" overflow="visible"><path d="M203 63.71v720.91h-51V63.71h51zm-13.91 438.12c0-6.41-5.19-11.59-11.6-11.59-6.4 0-11.58 5.18-11.58 11.59 0 6.4 5.18 11.58 11.58 11.58 6.41 0 11.6-5.18 11.6-11.58zm-.2 197.99c0-6.41-5.19-11.59-11.6-11.59-6.4 0-11.58 5.18-11.58 11.59 0 6.39 5.18 11.58 11.58 11.58 6.41 0 11.6-5.19 11.6-11.58zm-.01-359.31c0-6.4-5.19-11.59-11.59-11.59s-11.59 5.19-11.59 11.59c0 6.41 5.19 11.6 11.59 11.6s11.59-5.19 11.59-11.6zm-.2-184.49c0-6.4-5.19-11.58-11.59-11.58-6.4 0-11.59 5.18-11.59 11.58 0 6.41 5.19 11.6 11.59 11.6 6.4 0 11.59-5.19 11.59-11.6z" fill="#fff"/><g fill="none" stroke="#000"><path stroke-width="20.863" d="M203 63.71h498.73v720.91H152V63.71zM203 63.71v720.91"/><path d="M188.88 340.51c0 6.41-5.19 11.6-11.59 11.6s-11.59-5.19-11.59-11.6c0-6.4 5.19-11.59 11.59-11.59s11.59 5.19 11.59 11.59zM189.09 501.83c0 6.4-5.19 11.58-11.6 11.58-6.4 0-11.58-5.18-11.58-11.58 0-6.41 5.18-11.59 11.58-11.59 6.41 0 11.6 5.18 11.6 11.59zM188.68 156.02c0 6.41-5.19 11.6-11.59 11.6-6.4 0-11.59-5.19-11.59-11.6 0-6.4 5.19-11.58 11.59-11.58 6.4 0 11.59 5.18 11.59 11.58zM188.89 699.82c0 6.39-5.19 11.58-11.6 11.58-6.4 0-11.58-5.19-11.58-11.58 0-6.41 5.18-11.59 11.58-11.59 6.41 0 11.6 5.18 11.6 11.59z" stroke-width="13.908"/></g><path fill="none" d="M0 0h850.394v850.394H0z"/></svg>

<?xml version="1.0" encoding="iso-8859-1"?>
<!-- Generator: Adobe Illustrator 12.0.1, SVG Export Plug-In . SVG Version: 6.00 Build 51448)  -->
<!DOCTYPE svg PUBLIC "-//W3C//DTD SVG 1.1//EN" "http://www.w3.org/Graphics/SVG/1.1/DTD/svg11.dtd" [
	<!ENTITY ns_svg "http://www.w3.org/2000/svg">
	<!ENTITY ns_xlink "http://www.w3.org/1999/xlink">
]>
<svg  version="1.1" id="Layer_1" xmlns="&ns_svg;" xmlns:xlink="&ns_xlink;" width="850.394" height="850.394"
	 viewBox="0 0 850.394 850.394" style="overflow:visible;enable-background:new 0 0 850.394 850.394;" xml:space="preserve">
<g id="XMLID_5_">
	<g>
		<path style="fill:#FFFFFF;" d="M203,63.71v720.91h-51V63.71H203z M189.09,501.83c0-6.41-5.19-11.59-11.6-11.59
			c-6.4,0-11.58,5.18-11.58,11.59c0,6.4,5.18,11.58,11.58,11.58C183.9,513.41,189.09,508.23,189.09,501.83z M188.89,699.82
			c0-6.41-5.19-11.59-11.6-11.59c-6.4,0-11.58,5.18-11.58,11.59c0,6.39,5.18,11.58,11.58,11.58
			C183.7,711.4,188.89,706.21,188.89,699.82z M188.88,340.51c0-6.4-5.19-11.59-11.59-11.59s-11.59,5.19-11.59,11.59
			c0,6.41,5.19,11.6,11.59,11.6S188.88,346.92,188.88,340.51z M188.68,156.02c0-6.4-5.19-11.58-11.59-11.58
			c-6.4,0-11.59,5.18-11.59,11.58c0,6.41,5.19,11.6,11.59,11.6C183.49,167.62,188.68,162.43,188.68,156.02z"/>
	</g>
	<g>
		<polygon style="fill:none;stroke:#000000;stroke-width:20.8625;" points="203,63.71 701.73,63.71 701.73,784.62 203,784.62 
			152,784.62 152,63.71 		"/>
		<line style="fill:none;stroke:#000000;stroke-width:20.8625;" x1="203" y1="63.71" x2="203" y2="784.62"/>
		<path style="fill:none;stroke:#000000;stroke-width:13.9083;" d="M188.88,340.51c0,6.41-5.19,11.6-11.59,11.6
			s-11.59-5.19-11.59-11.6c0-6.4,5.19-11.59,11.59-11.59S188.88,334.11,188.88,340.51z"/>
		<path style="fill:none;stroke:#000000;stroke-width:13.9083;" d="M189.09,501.83c0,6.4-5.19,11.58-11.6,11.58
			c-6.4,0-11.58-5.18-11.58-11.58c0-6.41,5.18-11.59,11.58-11.59C183.9,490.24,189.09,495.42,189.09,501.83z"/>
		<path style="fill:none;stroke:#000000;stroke-width:13.9083;" d="M188.68,156.02c0,6.41-5.19,11.6-11.59,11.6
			c-6.4,0-11.59-5.19-11.59-11.6c0-6.4,5.19-11.58,11.59-11.58C183.49,144.44,188.68,149.62,188.68,156.02z"/>
		<path style="fill:none;stroke:#000000;stroke-width:13.9083;" d="M188.89,699.82c0,6.39-5.19,11.58-11.6,11.58
			c-6.4,0-11.58-5.19-11.58-11.58c0-6.41,5.18-11.59,11.58-11.59C183.7,688.23,188.89,693.41,188.89,699.82z"/>
	</g>
</g>
<rect style="fill:none;" width="850.394" height="850.394"/>
</svg>
